src/Stylish/48/status/system-suspend-hibernate.svg

<?xml version="1.0" encoding="UTF-8" standalone="no"?>
<!-- Created with Inkscape (http://www.inkscape.org/) -->

<svg
   width="48"
   height="48"
   viewBox="0 0 48 48"
   version="1.1"
   id="svg5"
   inkscape:version="1.2.1 (9c6d41e410, 2022-07-14)"
   sodipodi:docname="system-suspend-hibernate.svg"
   xmlns:inkscape="http://www.inkscape.org/namespaces/inkscape"
   xmlns:sodipodi="http://sodipodi.sourceforge.net/DTD/sodipodi-0.dtd"
   xmlns:xlink="http://www.w3.org/1999/xlink"
   xmlns="http://www.w3.org/2000/svg"
   xmlns:svg="http://www.w3.org/2000/svg">
  <sodipodi:namedview
     id="namedview7"
     pagecolor="#ffffff"
     bordercolor="#666666"
     borderopacity="1.0"
     inkscape:showpageshadow="2"
     inkscape:pageopacity="0.0"
     inkscape:pagecheckerboard="0"
     inkscape:deskcolor="#d1d1d1"
     inkscape:document-units="px"
     showgrid="false"
     inkscape:zoom="11.461022"
     inkscape:cx="27.48446"
     inkscape:cy="27.746216"
     inkscape:window-width="1920"
     inkscape:window-height="999"
     inkscape:window-x="0"
     inkscape:window-y="0"
     inkscape:window-maximized="1"
     inkscape:current-layer="svg5" />
  <defs
     id="defs2">
    <linearGradient
       inkscape:collect="always"
       xlink:href="#linearGradient2659"
       id="linearGradient4780"
       x1="2"
       y1="2"
       x2="30"
       y2="30"
       gradientUnits="userSpaceOnUse"
       gradientTransform="scale(1.5)" />
    <linearGradient
       inkscape:collect="always"
       id="linearGradient2659">
      <stop
         style="stop-color:#7a2ac0;stop-opacity:1;"
         offset="0"
         id="stop2655" />
      <stop
         style="stop-color:#b16cd5;stop-opacity:1;"
         offset="1"
         id="stop2657" />
    </linearGradient>
  </defs>
  <path
     d="M 19.5,4 C 5.8482141,4 3,6.9097258 3,20.5 v 9 C 3,43.090275 5.8482141,46 19.5,46 h 9 C 42.151785,46 45,43.090275 45,29.5 v -9 C 45,6.9097257 42.151785,4 28.5,4"
     style="opacity:0.2;fill:#000000;stroke-width:1.5;stroke-linecap:round;stroke-linejoin:round"
     id="path563" />
  <path
     id="path530"
     style="fill:url(#linearGradient4780);fill-opacity:1.0;stroke-width:1.5;stroke-linecap:round;stroke-linejoin:round"
     d="M 19.5,3 C 5.8482276,3 3,5.9097393 3,19.5 v 9 C 3,42.090261 5.8482276,45 19.5,45 h 9 C 42.151773,45 45,42.090261 45,28.5 v -9 C 45,5.9097393 42.151773,3 28.5,3 Z" />
  <path
     id="path369"
     style="fill:#ffffff;stroke-width:2;stroke-linecap:round;stroke-linejoin:round"
     d="M 24 10 C 16.268022 10 10 16.268022 10 24 C 10 31.731978 16.268022 38 24 38 C 31.731978 38 38 31.731978 38 24 C 38 16.268022 31.731978 10 24 10 z M 24 12 C 30.62741 12 36 17.37259 36 24 C 36 30.62741 30.62741 36 24 36 C 17.37259 36 12 30.62741 12 24 C 12 17.37259 17.37259 12 24 12 z M 24 19 A 5 5 0 0 0 19 24 A 5 5 0 0 0 24 29 A 5 5 0 0 0 29 24 A 5 5 0 0 0 24 19 z " />
</svg>

<?xml version="1.0" encoding="UTF-8" standalone="no"?>
<!-- Created with Inkscape (http://www.inkscape.org/) -->

<svg
   width="48"
   height="48"
   viewBox="0 0 48 48"
   version="1.1"
   id="svg5"
   inkscape:version="1.4.4 (dcaf3e7d9e, 2026-05-05)"
   sodipodi:docname="system-suspend-hibernate.svg"
   xmlns:inkscape="http://www.inkscape.org/namespaces/inkscape"
   xmlns:sodipodi="http://sodipodi.sourceforge.net/DTD/sodipodi-0.dtd"
   xmlns:xlink="http://www.w3.org/1999/xlink"
   xmlns="http://www.w3.org/2000/svg"
   xmlns:svg="http://www.w3.org/2000/svg">
  <sodipodi:namedview
     id="namedview7"
     pagecolor="#ffffff"
     bordercolor="#666666"
     borderopacity="1.0"
     inkscape:showpageshadow="2"
     inkscape:pageopacity="0.0"
     inkscape:pagecheckerboard="0"
     inkscape:deskcolor="#d1d1d1"
     inkscape:document-units="px"
     showgrid="false"
     inkscape:zoom="16.583333"
     inkscape:cx="23.939699"
     inkscape:cy="23.939699"
     inkscape:window-width="1920"
     inkscape:window-height="1012"
     inkscape:window-x="0"
     inkscape:window-y="0"
     inkscape:window-maximized="1"
     inkscape:current-layer="svg5" />
  <defs
     id="defs2">
    <linearGradient
       inkscape:collect="always"
       xlink:href="#linearGradient2659"
       id="linearGradient2881"
       x1="16"
       y1="3"
       x2="28.617373"
       y2="29"
       gradientUnits="userSpaceOnUse"
       gradientTransform="matrix(1.6153846,0,0,1.6153846,-1.8461539,-1.8461539)" />
    <linearGradient
       inkscape:collect="always"
       id="linearGradient2659">
      <stop
         style="stop-color:#7a2ac0;stop-opacity:1;"
         offset="0"
         id="stop2655" />
      <stop
         style="stop-color:#b16cd5;stop-opacity:1;"
         offset="1"
         id="stop2657" />
    </linearGradient>
  </defs>
  <circle
     style="opacity:0.2;fill:#000000;fill-opacity:1;stroke:none;stroke-width:3.23077;stroke-linecap:round;stroke-linejoin:round;stroke-dasharray:none;stroke-opacity:1"
     id="path2871"
     cx="24"
     cy="25.000126"
     r="21" />
  <circle
     style="opacity:1;fill:url(#linearGradient2881);fill-opacity:1;stroke:none;stroke-width:3.23077;stroke-linecap:round;stroke-linejoin:round;stroke-dasharray:none;stroke-opacity:1"
     id="path2873"
     cx="24"
     cy="24"
     r="21" />
  <path
     id="path369-6"
     style="fill:#ffffff;stroke-width:2;stroke-linecap:round;stroke-linejoin:round"
     d="m 24,10 c -7.731978,0 -14,6.268022 -14,14 0,7.731978 6.268022,14 14,14 7.731978,0 14,-6.268022 14,-14 0,-7.731978 -6.268022,-14 -14,-14 z m 0,2 c 6.62741,0 12,5.37259 12,12 0,6.62741 -5.37259,12 -12,12 -6.62741,0 -12,-5.37259 -12,-12 0,-6.62741 5.37259,-12 12,-12 z m 0,7 a 5,5 0 0 0 -5,5 5,5 0 0 0 5,5 5,5 0 0 0 5,-5 5,5 0 0 0 -5,-5 z" />
</svg>
